usr/share/icons/biglinux-icons-material-dark/22/actions/view-financial-account-closed.svg

<svg viewBox="0 0 22 22" xmlns="http://www.w3.org/2000/svg">
    <style type="text/css" id="current-color-scheme">
        .ColorScheme-Text {
            color:#dedede;
        }
        .ColorScheme-NegativeText {
            color:#da4453;
        }
    </style>
<path
    d="m5.1210938 3 1 1h11.878906v11.878906l1 1v-13.878906h-13.878906zm2 2 1 1h4.8789062v-1h-5.8789062zm2 2 1.0000002 1h0.878906v-1h-1.8789062zm-4.1210938 0.1210938v3.8789062h-2v1h6.8789062l-1-1h-2.8789062v-2.8789062l-1-1zm8.121094 3.8789062 1 1h2.878906v-1h-3.878906zm-10.121094 2v6h13.878906l-2-2h-0.878906v-0.878906l-3.121094-3.121094h-7.878906zm12.121094 0 1.878906 1.878906v-1.878906h-1.878906zm-11.121094 4h1v1h-1v-1zm2 0h1v1h-1v-1zm2 0h1v1h-1v-1zm2 0h1v1h-1v-1z"
    style="fill:currentColor; fill-opacity:1; stroke:none"
    class="ColorScheme-Text"
    />
<path
    d="M 3.7070312 3 L 3 3.7070312 L 18.292969 19 L 19 18.292969 L 3.7070312 3 z M 14 5 L 14 6 L 17 6 L 17 5 L 14 5 z "
    style="fill:currentColor; fill-opacity:1; stroke:none"
    class="ColorScheme-NegativeText"
    />
</svg>

<svg xmlns="http://www.w3.org/2000/svg" viewBox="0 0 22 22">
<style id="current-color-scheme" type="text/css">
.ColorScheme-Text{color:#dedede}.ColorScheme-NegativeText{color:#da4453}
</style>
<path d="m5.121 3 1 1H18v11.879l1 1V3zm2 2 1 1H13V5zm2 2 1 1H11V7zM5 7.121V11H3v1h6.879l-1-1H6V8.121zM13.121 11l1 1H17v-1zM3 13v6h13.879l-2-2H14v-.879L10.879 13zm12.121 0L17 14.879V13zM4 17h1v1H4zm2 0h1v1H6zm2 0h1v1H8zm2 0h1v1h-1z" class="ColorScheme-Text" style="fill:currentColor;fill-opacity:1;stroke:none"/>
<path d="M3.707 3 3 3.707 18.293 19l.707-.707zM14 5v1h3V5z" class="ColorScheme-NegativeText" style="fill:currentColor;fill-opacity:1;stroke:none"/>
</svg>
